X:1
T:Potash
M:4/4
C:Bill Vernieu
R:R
K:G
DEF \
|: "G"GFGA BAG2 | "C"A^GAB cBA2 | "G"B2 d2 cBAG | "D"FGEF DDEF | "G"GFGA BAG2 | "C"A^GAB cBA2 |
| "G"B2 d2 "D"AGFA |1 "G"G2 GG GDEF :|2 "G"G2 GG GABc |: "G"dcde dcB2 | "C"cBcd cBA2 | "G"B2 d2 cBAG |
| "D"FGEF DDEF | "G"GFGA BAG2 | "C"A^GAB cBA2 | "G"B2 d2 "D"AGFA |1 "G"G2 GG GABc :|2 "G"G2 GG G4 |]
